X:1
T:Entrée
T:Entrée
T:from the Aylesford Pieces
T:Georg Friedrich Händel (1685-1759)
T:by Mutopia-2013/02/21-150 - public domain
C:Georg Friedrich Händel (1685-1759)
Z:by Mutopia-2013/02/21-150 - public domain
%%score { ( 1 3 ) | 2 }
L:1/8
Q:1/4=92
M:4/4
K:Bb
V:1 treble nm="Harpsichord" snm="Hch."
V:3 treble 
V:2 bass 
V:1
"^Vivace" d | BGd[Bg] [A^f]=e d/g/f/g/ | d/d/c/B/ A/d/c/d/ .B.G .d.d | dc/B/ ff fe/d/ b>a | %4
 g/a/g/f/ e/d/c/B/ A/F/G/A/ B/c/d/e/ | f[Bg] [Bd][Ac]/B/ B>c de | .cd B>A A2 .d=e/=f/ | %7
 .=e^f/g/ .f.g [fa]3 :: a | ^f=e/d/ gg _ed/c/ =ff | d/e/d/c/ B/c/B/A/ G2 e/f/e/d/ | %11
 c/d/c/B/ A/B/A/G/ F/B/A/B/ G/c/B/c/ | A/d/c/d/ B/e/d/e/ c/f/e/f/ d/F/G/A/ | %13
 B/A/B/c/ dc/B/ B2 z .[Bd] | [Ac]2 z .[cf] [ce]2 z .[ce] | [Bd]2 z g ^fd a>a | .bedg ec =f>e | %17
 d[Bg]=e[ca] ^fd b>a | g/^f/g/a/ [dgb][fa]/g/ g2- g/=f/e/d/ | e/d/c/B/ c/B/A/G/ ^F.G .A.B | %20
 G/^F/G/A/ BA/G/ [B,DG]3 :| %21
V:2
 z | .G,.A,._B,.C .D.C.B,.G, | .C.A,.D.D, G,2 .G,.A, | _B,2 .B,.C D3 .D | _E>D .C._E, F,3 E, | %5
 .D,._E,.F,.F,, _B,,/F,/G,/A,/ _B,G, | A,^F,G,C, .D,.C,._B,,.G,, | .C,._B,,.A,,.G,, D,3 :: z | %9
 z D_B,G, CC A,G,/F,/ | _B,>A, G,>F, _E,/F,/E,/D,/ C,2 | A,>G, F,>_E, D,2 E,2 | %12
 F,2 G,2 A,2 _B,>A, | G,D,._E,.F, ._B,D/C/ B,/C/D/_E/ | .FA,/G,/ F,/G,/A,/_B,/ C/D/_E/D/ C/D/E/F/ | %15
 G_B,/A,/ G,/A,/B,/C/[K:treble] D/C/D/=E/ ^F/E/F/D/ | %16
 .G[K:bass]G,/A,/ _B,/A,/B,/G,/ .CC/B,/ A,/G,/A,/F,/ | _B,G,CA, D^F,G,.D | %18
 ._ECD.D, .G,G,/A,/ _B,.G, | .C,.D,._E,.C, D,2 .^F,.G, | ._E,.C,.D,.D,, G,,3 :| %21
V:3
 x | x8 | x2 ^F2 x2 .B.A | G2 dc B2 x2 | x8 | x6 .dB | cA G2 ^F2 G2 | GdcB d3 :: x | x8 | x8 | x8 | %12
 x8 | x2 GA/B/ x4 | x8 | x8 | x8 | x8 | ce x6 | x6 .D.D | CE[DG]^F x3 :| %21

